X: 20611
Q: "Andante"
M: 6/8
L: 1/8
K: G
d |\
(Bdg) d2c | (BG)B A2d | (B/c/)d F G2A | (B/c/)dB A2A |\
dBG e2d | f2g d2Hz | BG2 BG2 | dB2 dB2 | gd2 gd2 |
gd2 gd2 | (d3 G2=F) | E2z z2z | e3 A2G | F2z z2c |\


